X:0315
T:Quick Step 55th. Regt.
M:6/8
L:1/8
Q:3/8=88
I: :: :| :: ::
Z:Jack Campin * www.campin.me.uk * 2009
K:G
d2c BAG|AGF G2D|d2c BAG|AGF G3:|
ABG ABG|ABG A2B|c2B A2G|FGE D3 |
ABG ABG|ABG A2B|c2B A2G|GAF G3:|
g2g f2f|e2e def|gag fgf|e3  d3:|
ABG ABG|ABG A2A|c2B A2G|FGE D3 |
ABG ABG|ABG A2B|c2B A2G|GAF G3:|
<end>
<start>
